X:6
T: Graf und Nonne (Die Nonne)
N: Q0155E
O: Mitteleuropa, Deutschland (BRD) , Nordrhein - Westfalen, Siegen
N: Grundton in der zweigestrichenen Oktave.
R: Ballade, Standesunterschied, Werbung, Liebe
M: 3/4
L: 1/8
K: C
C2 | C2G,2EF | E2C2
G2 | A2G2FG | E2z2
CC | A2A2AA | AGG2
GG | AGFEGE | D2D2
G2 | A2G2FG | E2z2

